images/icons/minus-icon.svg

<svg height="24" viewBox="0 0 24 24" width="24" xmlns="http://www.w3.org/2000/svg"><path d="m14.210526 31h-13.42105232c-.4348421 0-.78947368.354647-.78947368.789474v13.421052c0 .434842.35464737.789474.78947368.789474h13.42105232c.434842 0 .789474-.354647.789474-.789474v-13.421052c0-.434842-.354647-.789474-.789474-.789474zm-13.42105232 14.210526v-13.421052h13.42105232l.0015 13.421052zm11.05263132-7.105263h-8.6842103c-.2189565 0-.3947368.17578-.3947368.394737s.1757803.394737.3947368.394737h8.6842103c.218957 0 .394737-.17578.394737-.394737s-.17578-.394737-.394737-.394737z" fill="#01aa50" fill-rule="evenodd" transform="matrix(1.5931302 0 0 1.5933096 .128471 -49.3281346)"/></svg>

<svg width="15px" height="15px" viewBox="0 0 15 15" version="1.1" xmlns="http://www.w3.org/2000/svg" xmlns:xlink="http://www.w3.org/1999/xlink">
    <!-- Generator: Sketch 50.2 (55047) - http://www.bohemiancoding.com/sketch -->
    <desc>Created with Sketch.</desc>
    <defs></defs>
    <g id="Wireframes---Desktop" stroke="none" stroke-width="1" fill="none" fill-rule="evenodd">
        <g id="Dash---My-Vault---My-Files" transform="translate(-146.000000, -209.000000)" fill="#01AA50">
            <g id="Category-Display" transform="translate(146.000000, 146.000000)">
                <g id="My-Files" transform="translate(0.000000, 32.000000)">
                    <path d="M14.2105263,31 L0.789473684,31 C0.354631579,31 0,31.3546474 0,31.7894737 L0,45.2105263 C0,45.6453684 0.354647368,46 0.789473684,46 L14.2105263,46 C14.6453684,46 15,45.6453526 15,45.2105263 L15,31.7894737 C15,31.3546316 14.6453526,31 14.2105263,31 Z M0.789473684,45.2105263 L0.789473684,31.7894737 L14.2105263,31.7894737 L14.2120697,45.2105263 L0.789473684,45.2105263 Z M11.8421053,38.1052632 L3.15789474,38.1052632 C2.93893816,38.1052632 2.76315789,38.2810434 2.76315789,38.5 C2.76315789,38.7189566 2.93893816,38.8947368 3.15789474,38.8947368 L11.8421053,38.8947368 C12.0610618,38.8947368 12.2368421,38.7189566 12.2368421,38.5 C12.2368421,38.2810434 12.0610618,38.1052632 11.8421053,38.1052632 Z" id="Page-1"></path>
                </g>
            </g>
        </g>
    </g>
</svg>
